icon-themes/sifr_svg/cmd/sc_connectorcurvearrows.svg

<svg viewBox="0 0 16 16" xmlns="http://www.w3.org/2000/svg"><path d="m5 0c-.30945 0-.55232.0903-.75.28125-1.41667 1.07301-2.83333 2.64575-4.25 3.71875l4.25 3.71875c.19768.19095.44055.28125.75.28125h.5859375.4140625v-1c0-.25689-.12983-.52846-.3125-.71875l-1.5097656-1.28125c2.1410808.00292 4.4047147-.00369 6.3964846 0-.6308815.5170049-1.455154 1.1221175-3.1035159 2.1523438-2.0190561 1.26191-3.2833794 2.1246354-4.0429687 2.8652342-.3797947.3703-.7268078.691633-.7832032 1.361328-.028198.334848.1099245.742804.328125.988282.2182011.245471.4501786.381398.6757813.443359.6898012.189453 1.8426241.205313 3.2382813.189453 1.7197025-.0083 3.4117452.0013 4.9355472 0l-1.509766 1.28125c-.18267.1903-.3125.46186-.3125.71875v1h.414062.585938c.30945 0 .55232-.0903.75-.28125 1.41667-1.07301 2.83333-2.64575 4.25-3.71875l-4.25-3.71875c-.19768-.19095-.44055-.28125-.75-.28125h-.585938-.414062v1c0 .25689.12983.52846.3125.71875l1.509766 1.28125c-2.1156625-.007-4.3515293.01144-6.3593754 0 .6187767-.510784 1.4281102-1.1284082 3.0664063-2.1523438 2.0190561-1.2619093 3.2858511-2.1298057 4.0507811-2.8574218.382465-.3638081.706344-.6622872.816406-1.2773438.055032-.3075283-.020698-.7184237-.21875-.9960937-.198051-.2776701-.440603-.4258242-.658203-.5117188-.519531-.2050781-1.726932-.2209951-2.9843748-.2050781-1.9541263.0098453-3.4290094 0-5.3574218 0l1.5097656-1.28125c.18267-.1903.3125-.46186.3125-.71875v-1h-.4140625z" fill="#555753"/></svg>

<svg xmlns="http://www.w3.org/2000/svg" viewBox="0 0 16 16">
  <path
     style="fill:#555753"
     d="M 5 0 C 4.69055 0 4.44768 0.0903 4.25 0.28125 C 2.83333 1.35426 1.41667 2.927 0 4 L 4.25 7.71875 C 4.44768 7.9097 4.69055 8 5 8 L 5.5859375 8 L 6 8 L 6 7 C 6 6.74311 5.87017 6.47154 5.6875 6.28125 L 4.1777344 5 C 6.3188152 5.00292 8.5824491 4.99631 10.574219 5 C 9.9433375 5.5170049 9.119065 6.1221175 7.4707031 7.1523438 C 5.451647 8.4142538 4.1873237 9.2769792 3.4277344 10.017578 C 3.0479397 10.387878 2.7009266 10.709211 2.6445312 11.378906 C 2.6163332 11.713754 2.7544557 12.12171 2.9726562 12.367188 C 3.1908573 12.612659 3.4228348 12.748586 3.6484375 12.810547 C 4.3382387 13 5.4910616 13.01586 6.8867188 13 C 8.6064213 12.9917 10.298464 13.0013 11.822266 13 L 10.3125 14.28125 C 10.12983 14.47155 10 14.74311 10 15 L 10 16 L 10.414062 16 L 11 16 C 11.30945 16 11.55232 15.9097 11.75 15.71875 C 13.16667 14.64574 14.58333 13.073 16 12 L 11.75 8.28125 C 11.55232 8.0903 11.30945 8 11 8 L 10.414062 8 L 10 8 L 10 9 C 10 9.25689 10.12983 9.52846 10.3125 9.71875 L 11.822266 11 C 9.7066035 10.993 7.4707367 11.01144 5.4628906 11 C 6.0816673 10.489216 6.8910008 9.8715918 8.5292969 8.8476562 C 10.548353 7.5857469 11.815148 6.7178505 12.580078 5.9902344 C 12.962543 5.6264263 13.286422 5.3279472 13.396484 4.7128906 C 13.451516 4.4053623 13.375786 3.9944669 13.177734 3.7167969 C 12.979683 3.4391268 12.737131 3.2909727 12.519531 3.2050781 C 12 3 10.792599 2.984083 9.5351562 3 C 7.5810299 3.0098453 6.1061468 3 4.1777344 3 L 5.6875 1.71875 C 5.87017 1.52845 6 1.25689 6 1 L 6 0 L 5.5859375 0 L 5 0 z "
     />
</svg>
